build/assets/img/about-us/smm-element-6.svg

<svg width="74" height="74" viewBox="0 0 74 74" fill="none" xmlns="http://www.w3.org/2000/svg">
<g clip-path="url(#clip0)">
<path d="M52.5698 30.0831V47.093C52.5698 49.0846 51.7794 50.9946 50.3726 52.4029C48.9657 53.8112 47.0576 54.6023 45.068 54.6023H28.0788C26.0892 54.6023 24.1811 53.8112 22.7742 52.4029C21.3674 50.9946 20.577 49.0846 20.577 47.093V30.0831C20.577 28.0915 21.3674 26.1815 22.7742 24.7732C24.1811 23.3649 26.0892 22.5737 28.0788 22.5737H45.0714C47.061 22.5737 48.9691 23.3649 50.376 24.7732C51.7828 26.1815 52.5732 28.0915 52.5732 30.0831H52.5698Z" fill="#3B579D"/>
<path fill-rule="evenodd" clip-rule="evenodd" d="M45.0616 33.5352C45.9135 33.5021 46.7719 33.5352 47.6303 33.5352H47.9841V29.033C47.5254 28.9866 47.0471 28.9204 46.5687 28.9005C45.6907 28.8608 44.8126 28.8145 43.9477 28.8343C42.6134 28.8233 41.3085 29.2304 40.2126 29.9996C39.6097 30.4431 39.1012 31.0046 38.7174 31.6506C38.3335 32.2967 38.0821 33.0141 37.9782 33.7603C37.8765 34.3974 37.8239 35.0416 37.8209 35.6869C37.8209 36.6999 37.8209 37.6732 37.8209 38.7193V39.0967H33.5616V44.1219H37.7947V56.7413H42.9713V44.1617H47.1913C47.4075 42.4932 47.6172 40.8512 47.8465 39.1099H42.932C42.932 39.1099 42.9713 36.6205 42.9713 35.5082C43.0172 34.0251 43.8887 33.5749 45.0616 33.5352Z" fill="white"/>
<path d="M69.25 38.3568C69.25 56.645 54.695 71.4627 36.75 71.4627C18.8051 71.4627 4.25 56.645 4.25 38.3568C4.25 20.0686 18.8051 5.25098 36.75 5.25098C54.695 5.25098 69.25 20.0686 69.25 38.3568Z" fill="#FFC9E7" fill-opacity="0.3" stroke="#E4829E" stroke-width="0.5"/>
<g filter="url(#filter0_f)">
<path d="M22.0209 18.033C26.7401 15.8857 26.7111 13.7197 26.3297 12.7654C25.1856 11.477 24.2173 11.8689 22.8975 12.1927C21.1663 12.6175 18.6456 14.9561 16.4622 17.0599C14.3408 19.104 10.9204 23.8032 10.8644 25.7583C10.8152 27.4814 11.741 28.7936 12.17 27.3621C12.5991 25.9305 16.6389 20.4819 22.0209 18.033Z" fill="white"/>
</g>
<path d="M23.5309 67.0797C38.6319 71.6528 66.6778 65.1444 66.8229 32.4871C71.0534 49.967 54.6602 78.3248 23.5309 67.0797Z" fill="#FFCBE8"/>
</g>
<defs>
<filter id="filter0_f" x="9.86255" y="10.8726" width="17.621" height="18.1001" filterUnits="userSpaceOnUse" color-interpolation-filters="sRGB">
<feFlood flood-opacity="0" result="BackgroundImageFix"/>
<feBlend mode="normal" in="SourceGraphic" in2="BackgroundImageFix" result="shape"/>
<feGaussianBlur stdDeviation="0.5" result="effect1_foregroundBlur"/>
</filter>
<clipPath id="clip0">
<rect width="74" height="74" fill="white"/>
</clipPath>
</defs>
</svg>

<svg width="74" height="74" fill="none" xmlns="http://www.w3.org/2000/svg"><g clip-path="url(#clip0)"><path d="M52.57 30.083v17.01c0 1.992-.79 3.902-2.197 5.31a7.498 7.498 0 01-5.305 2.2h-16.99a7.498 7.498 0 01-5.304-2.2 7.513 7.513 0 01-2.197-5.31v-17.01c0-1.991.79-3.901 2.197-5.31a7.498 7.498 0 015.305-2.2H45.07a7.5 7.5 0 015.305 2.2 7.513 7.513 0 012.197 5.31h-.003z" fill="#3B579D"/><path fill-rule="evenodd" clip-rule="evenodd" d="M45.062 33.535c.852-.033 1.71 0 2.568 0h.354v-4.502c-.459-.046-.937-.113-1.415-.133-.878-.04-1.756-.085-2.621-.066A6.408 6.408 0 0040.213 30a5.6 5.6 0 00-1.496 1.65 5.658 5.658 0 00-.739 2.11 12.594 12.594 0 00-.157 1.927v3.41h-4.26v5.025h4.234v12.62h5.176v-12.58h4.22c.216-1.669.426-3.31.655-5.052h-4.914s.04-2.49.04-3.602c.045-1.483.917-1.933 2.09-1.973z" fill="#fff"/><path d="M69.25 38.357c0 18.288-14.555 33.106-32.5 33.106S4.25 56.645 4.25 38.357c0-18.288 14.555-33.106 32.5-33.106s32.5 14.818 32.5 33.106z" fill="#FFC9E7" fill-opacity=".3" stroke="#E4829E" stroke-width=".5"/><g filter="url(#filter0_f)"><path d="M22.02 18.033c4.72-2.147 4.691-4.313 4.31-5.268-1.144-1.288-2.113-.896-3.432-.572-1.732.425-4.252 2.763-6.436 4.867-2.121 2.044-5.542 6.743-5.598 8.698-.049 1.723.877 3.036 1.306 1.604.43-1.431 4.469-6.88 9.85-9.329z" fill="#fff"/></g><path d="M23.53 67.08c15.102 4.573 43.148-1.936 43.293-34.593 4.23 17.48-12.163 45.838-43.292 34.593z" fill="#FFCBE8"/></g><defs><clipPath id="clip0"><path fill="#fff" d="M0 0h74v74H0z"/></clipPath><filter id="filter0_f" x="9.863" y="10.873" width="17.621" height="18.1" filterUnits="userSpaceOnUse" color-interpolation-filters="sRGB"><feFlood flood-opacity="0" result="BackgroundImageFix"/><feBlend in="SourceGraphic" in2="BackgroundImageFix" result="shape"/><feGaussianBlur stdDeviation=".5" result="effect1_foregroundBlur"/></filter></defs></svg>
